X:210
T: ES SPIELT EIN GRAF MIT EINER MAGD
N: E0110
O: Europa, Mitteleuropa, Deutschland
R: erzaehlendes Volks - Lied, Sage, Liebe, Leid, Tod
M: 4/4
L: 1/8
K: G
d2 | d2c2d2_e2 | =f2g2d3
f | _e2d2c2_B2 | c4d3
c | c2c2d2c2 | _B2A2G2
A2 | _B2c2d2B2 | A4G2

